icons/show-all-parameters-16.svg

<svg id="icons" xmlns="http://www.w3.org/2000/svg" viewBox="0 0 16 16"><defs><style>.cls-1{fill:none;}</style></defs><path d="M10,0H1A1.0013,1.0013,0,0,0,0,1V2A1.0013,1.0013,0,0,0,1,3h9a1.0013,1.0013,0,0,0,1-1V1A1.0013,1.0013,0,0,0,10,0Zm0,2H1V1h9l.001,1ZM3.548,11H1a1.0013,1.0013,0,0,1-1-1V9A1.0013,1.0013,0,0,1,1,8H6.55786a10.633,10.633,0,0,0-1.316,1H1v1H4.24939c-.14008.16107-.23889.28412-.28064.33838l-.21387.27588A1.48572,1.48572,0,0,0,3.548,11ZM16,11.43318l-.13818-.17693C15.76611,11.13336,13.481,8.24639,10.5,8.24639c-2.98145,0-5.251,2.88788-5.3457,3.01077l-.21387.276.21387.276C5.249,11.93213,7.51855,14.82,10.5,14.82c2.981,0,5.26611-2.887,5.36182-3.00985L16,11.63322Zm-5.4917-1.30861a1.41142,1.41142,0,1,0,1.5,1.40863A1.45807,1.45807,0,0,0,10.5083,10.12457Zm-.00879,3.89718c-2.10034,0-3.91339-1.77409-4.55829-2.48855.6449-.71452,2.45795-2.4886,4.55829-2.4886,2.10138,0,3.92481,1.77311,4.57538,2.48958C14.42639,12.24961,12.6076,14.02175,10.49951,14.02175ZM10.5,6.74658c.04645,0,.09064.00635.13672.00739A.98469.98469,0,0,0,11,6V5a1.0013,1.0013,0,0,0-1-1H1A1.0013,1.0013,0,0,0,0,5V6A1.0013,1.0013,0,0,0,1,7H8.742A6.46118,6.46118,0,0,1,10.5,6.74658ZM1,5h9l.001,1H1Z"/><rect class="cls-1" width="16" height="16"/></svg>

<svg xmlns="http://www.w3.org/2000/svg" viewBox="0 0 16 16"><path d="M10 0H1a1.001 1.001 0 0 0-1 1v1a1.001 1.001 0 0 0 1 1h9a1.001 1.001 0 0 0 1-1V1a1.001 1.001 0 0 0-1-1zm0 2H1V1h9l.001 1zm-6.452 9H1a1.001 1.001 0 0 1-1-1V9a1.001 1.001 0 0 1 1-1h5.558a10.633 10.633 0 0 0-1.316 1H1v1h3.25c-.14.161-.24.284-.281.338l-.214.276a1.486 1.486 0 0 0-.207.386zM16 11.433l-.138-.177c-.096-.123-2.381-3.01-5.362-3.01-2.981 0-5.251 2.888-5.346 3.011l-.214.276.214.276c.095.123 2.365 3.011 5.346 3.011s5.266-2.887 5.362-3.01l.138-.177zm-5.492-1.308a1.411 1.411 0 1 0 1.5 1.408 1.458 1.458 0 0 0-1.5-1.408zm-.008 3.897c-2.1 0-3.914-1.774-4.559-2.489.645-.714 2.458-2.488 4.559-2.488 2.1 0 3.924 1.773 4.575 2.49-.649.715-2.467 2.487-4.575 2.487zm0-7.275c.046 0 .09.006.137.007A.985.985 0 0 0 11 6V5a1.001 1.001 0 0 0-1-1H1a1.001 1.001 0 0 0-1 1v1a1.001 1.001 0 0 0 1 1h7.742a6.461 6.461 0 0 1 1.758-.253zM1 5h9l.001 1H1z"/><path fill="none" d="M0 0h16v16H0z"/></svg>
